public/assets/img/linkedin.svg

<svg xmlns="http://www.w3.org/2000/svg" width="32" height="32" viewBox="0 0 256 256"><defs><linearGradient id="a"><stop offset="0" stop-color="#b565a7"/><stop offset="1" stop-color="#5f4b8b"/></linearGradient></defs><path d="M224 40v176a8 8 0 0 1-8 8H40a8 8 0 0 1-8-8V40a8 8 0 0 1 8-8h176a8 8 0 0 1 8 8z" fill="url(#a)" opacity=".25"/><path fill="#5f4b8b" d="M216 24H40a16 16 0 0 0-16 16v176a16 16 0 0 0 16 16h176a16 16 0 0 0 16-16V40a16 16 0 0 0-16-16zm0 192H40V40h176v176zM96 112v64a8 8 0 0 1-16 0v-64a8 8 0 0 1 16 0zm88 28v36a8 8 0 0 1-16 0v-36a20 20 0 0 0-40 0v36a8 8 0 0 1-16 0v-64a8 8 0 0 1 15.79-1.78A36 36 0 0 1 184 140zm-84-56a12 12 0 1 1-12-12 12 12 0 0 1 12 12z"/><path fill="url(#a)" d="M216 24H40a16 16 0 0 0-16 16v176a16 16 0 0 0 16 16h176a16 16 0 0 0 16-16V40a16 16 0 0 0-16-16zm0 192H40V40h176v176zM96 112v64a8 8 0 0 1-16 0v-64a8 8 0 0 1 16 0zm88 28v36a8 8 0 0 1-16 0v-36a20 20 0 0 0-40 0v36a8 8 0 0 1-16 0v-64a8 8 0 0 1 15.79-1.78A36 36 0 0 1 184 140zm-84-56a12 12 0 1 1-12-12 12 12 0 0 1 12 12z"/></svg>

<svg xmlns="http://www.w3.org/2000/svg" width="32" height="32" viewBox="0 0 256 256" focusable="false">
  <defs>
    <linearGradient id="gradient">
      <stop offset="0" stop-color="#b565a7"></stop>
      <stop offset="1" stop-color="#5f4b8b"></stop>
    </linearGradient>
  </defs>
  <path
    d="M224,40V216a8,8,0,0,1-8,8H40a8,8,0,0,1-8-8V40a8,8,0,0,1,8-8H216A8,8,0,0,1,224,40Z"
    fill="url(#gradient)"
    opacity="0.25"
  ></path>
  <path
    fill="#5f4b8b"
    id="linkedin-solid"
    d="M216,24H40A16,16,0,0,0,24,40V216a16,16,0,0,0,16,16H216a16,16,0,0,0,16-16V40A16,16,0,0,0,216,24Zm0,192H40V40H216V216ZM96,112v64a8,8,0,0,1-16,0V112a8,8,0,0,1,16,0Zm88,28v36a8,8,0,0,1-16,0V140a20,20,0,0,0-40,0v36a8,8,0,0,1-16,0V112a8,8,0,0,1,15.79-1.78A36,36,0,0,1,184,140ZM100,84A12,12,0,1,1,88,72,12,12,0,0,1,100,84Z"
  ></path>
  <path
    fill="url(#gradient)"
    id="linkedin-gradient"
    d="M216,24H40A16,16,0,0,0,24,40V216a16,16,0,0,0,16,16H216a16,16,0,0,0,16-16V40A16,16,0,0,0,216,24Zm0,192H40V40H216V216ZM96,112v64a8,8,0,0,1-16,0V112a8,8,0,0,1,16,0Zm88,28v36a8,8,0,0,1-16,0V140a20,20,0,0,0-40,0v36a8,8,0,0,1-16,0V112a8,8,0,0,1,15.79-1.78A36,36,0,0,1,184,140ZM100,84A12,12,0,1,1,88,72,12,12,0,0,1,100,84Z"
  ></path>
</svg>
